X:53
T:score144
L:1/8
Q:1/4=96
M:2/2
I:linebreak $
K:C
!p! (C2 =EC .G,2) .G,2 | (C2 EC .G,2) .G2 | (FEDC B,CB,C |$ DCB,A, G,2) z2 | (C2 G,C .E2) .E2 | %5
"_cresc." (E2 CE .G2) .c2 |$ .G2 .F2 .E2 .D2 |!f! C z z2 z4 |] %8
